X: 11237
T: Dusty Miller
R: three-two
M: 3/2
K: Gmajor
|:B3c d2B2 A2G2|F2A2 A2B2 c2A2|B3c d2B2 A2G2|D2G2 G2A2 B2G2:|
|:B2d2 e2f2 g4|a2A2 A2B2 c2A2|B2d2 e2g2 "tr"f2ef|g2G2 G2A2 B2G2:|

